X:265
T:Sligo Maid
M:4/4
L:1/8
S:arrangement Linda Danielson
R:Reel
K:ADor
d3/2B/2|A2 BA Bdef|gedB AGED|G2 BG dGBG|DEGA BAdB|A2 BA Bdef|gedB AE E2|
B3G ABGE|DEGA BA A2:|:
eaag a2 ga|bgaf gfed|eggf gage|dega bgag|eaag a2 ga|bgaf gfed|eg g2 edBc
|dBgB BA A2:|
% Output from ABC2Win  Version 2.1 i on 3/28/2006
% Written by ABC2Win  2.2.119 on 4/4/2006
